svg/m/FM.svg

<svg width="20" height="15" viewBox="0 0 20 15" fill="none" xmlns="http://www.w3.org/2000/svg">
<g clip-path="url(#clip0_270_60942)">
<rect width="20" height="15" fill="white"/>
<path fill-rule="evenodd" clip-rule="evenodd" d="M0 0V15H20V0H0Z" fill="#63B3E1"/>
<mask id="mask0_270_60942" style="mask-type:luminance" maskUnits="userSpaceOnUse" x="0" y="0" width="20" height="15">
<path fill-rule="evenodd" clip-rule="evenodd" d="M0 0V15H20V0H0Z" fill="white"/>
</mask>
<g mask="url(#mask0_270_60942)">
<path fill-rule="evenodd" clip-rule="evenodd" d="M10 4.5625L8.8979 5.14191L9.10838 3.9147L8.21677 3.04559L9.44895 2.86655L10 1.75L10.551 2.86655L11.7832 3.04559L10.8916 3.9147L11.1021 5.14191L10 4.5625Z" fill="#F7FCFF"/>
<path fill-rule="evenodd" clip-rule="evenodd" d="M10 12.0625L8.8979 12.6419L9.10838 11.4147L8.21677 10.5456L9.44895 10.3665L10 9.25L10.551 10.3665L11.7832 10.5456L10.8916 11.4147L11.1021 12.6419L10 12.0625Z" fill="#F7FCFF"/>
<path fill-rule="evenodd" clip-rule="evenodd" d="M6.12503 8.4375L5.02293 9.01691L5.23342 7.7897L4.3418 6.92059L5.57398 6.74155L6.12503 5.625L6.67608 6.74155L7.90826 6.92059L7.01665 7.7897L7.22713 9.01691L6.12503 8.4375Z" fill="#F7FCFF"/>
<path fill-rule="evenodd" clip-rule="evenodd" d="M13.75 8.4375L12.6479 9.01691L12.8584 7.7897L11.9668 6.92059L13.199 6.74155L13.75 5.625L14.301 6.74155L15.5332 6.92059L14.6416 7.7897L14.8521 9.01691L13.75 8.4375Z" fill="#F7FCFF"/>
</g>
</g>
<defs>
<clipPath id="clip0_270_60942">
<rect width="20" height="15" fill="white"/>
</clipPath>
</defs>
</svg>

<svg width="20" height="15" fill="none" xmlns="http://www.w3.org/2000/svg">
  <mask id="a" maskUnits="userSpaceOnUse" x="0" y="0" width="20" height="15">
    <path fill="#fff" d="M0 0h20v15H0z"/>
  </mask>
  <g mask="url(#a)">
    <path fill-rule="evenodd" clip-rule="evenodd" d="M0 0v15h20V0H0z" fill="#63B3E1"/>
    <mask id="b" maskUnits="userSpaceOnUse" x="0" y="0" width="20" height="15">
      <path fill-rule="evenodd" clip-rule="evenodd" d="M0 0v15h20V0H0z" fill="#fff"/>
    </mask>
    <g mask="url(#b)" fill-rule="evenodd" clip-rule="evenodd" fill="#F7FCFF">
      <path d="M10 4.563l-1.102.579.21-1.227-.891-.87 1.232-.178L10 1.75l.551 1.117 1.232.179-.891.869.21 1.227L10 4.562zm0 7.5l-1.102.579.21-1.227-.891-.87 1.232-.178L10 9.25l.551 1.117 1.232.179-.891.869.21 1.227-1.102-.58zM6.125 8.438l-1.102.579.21-1.227-.891-.87 1.232-.178.551-1.117.551 1.117 1.232.179-.891.869.21 1.227-1.102-.58zm7.625 0l-1.102.579.21-1.227-.891-.87 1.232-.178.551-1.117.551 1.117 1.232.179-.891.869.21 1.227-1.102-.58z"/>
    </g>
  </g>
</svg>
